X:1
T:Title
%%score { ( 1 3 ) | ( 2 4 ) }
L:1/8
M:6/8
K:G
V:1 treble nm="Grand Piano"
V:3 treble 
V:2 treble 
V:4 treble 
V:1
 z3 z2[Q:1/4=100] D | G2 F G2 A | B3 d2 d | e2 d B2 [DG] |[M:5/8] [GB]3 A2 |[M:1/8] D | %6
[M:3/4] G2 F G2 A | B3 d2 B | A2 A [^CEB]2 [CGA] |[M:5/8] [DFA]-[DFA]- [DFA]3 |[M:1/8] D | %11
[M:3/4] G2 F G2 A | B3 d2 d | d2 B A2 G |[M:5/8] [EG]3 [Ge]2 |[M:1/8] [Ge] | %16
[M:3/4] [Gd]2 [GB] [GB]2 [B,G] | [CEG]3 [G,CE]2 [G,CE] | [G,B,D]2 [B,DG] [DFB]2 [CFA] | %19
[M:5/8] [B,G]-[B,G]- [B,G]3 |] %20
V:2
 z3 z2 [G,B,] | [G,B,D]2 [A,CD] [B,D]2 [A,DF] | [G,DG]3 [G,B,G]2 [G,B,G] | %3
 [G,CG]2 [G,B,G] [G,DG]2[K:bass] B,, |[M:5/8] z z2 F2 |[M:1/8] [D,C] | %6
[M:3/4][K:treble] [G,B,D]2 [A,CD] [B,D]2 [A,DF] | [G,DG]3 [G,B,G]2 [G,DG] | %8
 [A,DF]2 [A,DF][K:bass] A,,2 A,, |[M:5/8] D,-D,- D,3 |[M:1/8] [D,C] | %11
[M:3/4][K:treble] [G,B,D]2 [A,CD] [B,D]2 [A,DF] | [G,DG]3 [G,B,G]2 [G,B,G] | %13
 [G,B,=F]2 [G,DF] [G,CF]2 [G,B,F] |[M:5/8][K:bass] [C,C]-[C,C]- [C,C]3 |[M:1/8] [C,A,] | %16
[M:3/4] [D,B,]2 [D,D] [D,D]2 E, | C,3 C,2 C, | D,2 D, D,2 D, |[M:5/8] G,-G,- G,3 |] %20
V:3
 x6 | x6 | x6 | x6 |[M:5/8] D-D- D3 |[M:1/8] x |[M:3/4] x6 | x6 | x6 |[M:5/8] x5 |[M:1/8] x | %11
[M:3/4] x6 | x6 | x6 |[M:5/8] x5 |[M:1/8] x |[M:3/4] x6 | x6 | x6 |[M:5/8] x5 |] %20
V:4
 x6 | x6 | x6 | x5[K:bass] x |[M:5/8] D,-D,- D,3 |[M:1/8] x |[M:3/4][K:treble] x6 | x6 | %8
 x3[K:bass] x3 |[M:5/8] x5 |[M:1/8] x |[M:3/4][K:treble] x6 | x6 | x6 |[M:5/8][K:bass] x5 | %15
[M:1/8] x |[M:3/4] x6 | x6 | x6 |[M:5/8] x5 |] %20

